X:73
T: ES SOLLT EIN SCHAEFER HUETEN GEHN
N: E0043D
O: Europa, Mitteleuropa, Deutschland, Siebengebirge
R: erzaehlendes Volks - Lied, Ritter - Sage
M: 6/8
L: 1/16
K: E
=D2 | =D2A2A2A2B2=c2 | B3AB2=G4z2
A2B2=c2=d3ed2 | =c4B2A4
AB | =c4c2c4B2 | =G4F2E4z2
E4E2F4z2 | B4B2F4
F2 | A2=G2F2G2F2E2 | F4B2E4

